X: 1
T: the HOPELESS
B: Button & Whitaker "Twelve Elegant New Dances for the year 1810" #1
S: http://imslp.org/wiki/Button_and_Whitaker%27s_Elegant_New_Dances_for_1810_%28Various%29
Z: 2014 John Chambers <jc:trillian.mit.edu>
M: 6/8
L: 1/8
K: G
% - - - - - - - - - - - - - - - - - - - - - - - - -
% Staff layout changed to fit our page size:
V: 1 clef=treble middle=B
|:\
BAB G3 | d^cd B3 | edc BAG | FGA D3 |\
BAB G3 | d^cd g3 | fed ed^c | d6 :|
|:\
fga d3 | gab d2^d | e=dc BAG | FGA D3 |\
GFG B3 | A^GA e3 | ded cBA | G3 G2z :|
% - - - - - - - - - - - - - - - - - - - - - - - - -
% Original staff layout preserved:
V: 2 clef=bass middle=d
|:\
G3 g3 | G3 g3 | c3 ^c3 | d6 | G3 g3 |
G3 g3 | A3 a3 | dfa d3 :||: d3 =c3 | B3 z2z | c3 ^c3 |
d3 z2z | B3 G3 | c3 ^c3 | d3 D3 | G3 g2z :|
% - - - - - - - - Dance description - - - - - - - -
%%begintext align
%% Foot it & turn your Partner, back again,
%% down the middle and up again, right & left.
%%endtext
% - - - - - - - - - - - - - - - - - - - - - - - - -
%%sep 2 5 100

%%sep 1 1 500
%%sep 1 1 500
